packages/foundations/assets/icons/functional/images/date & time/alarm_clock_plus_12.svg

<svg width="12" height="12" viewBox="0 0 12 12" fill="none" xmlns="http://www.w3.org/2000/svg">
<g clip-path="url(#clip0_231_158)">
<path fill-rule="evenodd" clip-rule="evenodd" d="M8.96192 1.20001C9.83811 1.20001 10.5809 1.90474 10.5809 2.80001C10.5809 3.37144 10.2762 3.8857 9.81904 4.19046C10.0667 4.74287 10.2 5.35239 10.2 5.981C10.2 6.97147 9.87621 7.86668 9.3238 8.59049L10.1048 9.84763C10.1634 9.94199 10.2 10.0571 10.2 10.1715C10.2 10.5143 9.9524 10.781 9.60954 10.781C9.41907 10.781 9.23438 10.6821 9.11431 10.4953L8.42859 9.42858C7.74288 9.90474 6.90478 10.1905 6.00951 10.1905C5.11431 10.1905 4.27621 9.90474 3.5905 9.4476L2.90478 10.5143C2.78464 10.7011 2.60002 10.8 2.42856 10.8C1.91431 10.8 1.66605 10.2663 1.91431 9.86671L2.69523 8.60951C2.16189 7.88576 1.81904 6.97147 1.81904 5.981C1.81904 5.37147 1.9524 4.76195 2.19999 4.20954C1.72383 3.90477 1.41907 3.37144 1.41907 2.81903C1.41907 1.92382 2.16189 1.20001 3.01907 1.20001C3.64761 1.20001 4.23811 1.56195 4.50478 2.09528C5.00002 1.88573 5.45716 1.80954 6.00951 1.80954C6.54285 1.80954 7.01907 1.86671 7.51431 2.03811C7.79999 1.52379 8.3524 1.20001 8.96192 1.20001ZM6.02771 2.99049C4.36058 2.99049 2.99999 4.35101 2.99999 6.01821C2.99999 7.6854 4.36058 9.04592 6.02771 9.04592C7.6949 9.04592 9.05543 7.6854 9.05543 6.01821C9.05543 4.35101 7.6949 2.99049 6.02771 2.99049ZM6.60003 4.20001L6.6 5.40001H7.8V6.60001H6.6L6.60003 7.80001H5.39998L5.4 6.60001H4.2V5.40001H5.4L5.39998 4.20001H6.60003Z" fill="#1A1C1F"/>
</g>
<defs>
<clipPath id="clip0_231_158">
<rect width="12" height="12" fill="white"/>
</clipPath>
</defs>
</svg>

<svg xmlns="http://www.w3.org/2000/svg" width="12" height="12" fill="none"><g clip-path="url(#a)"><path fill="#1A1C1F" fill-rule="evenodd" d="M8.962 1.2c.876 0 1.619.705 1.619 1.6 0 .571-.305 1.086-.762 1.39.248.553.381 1.162.381 1.791 0 .99-.324 1.886-.876 2.61l.78 1.257c.06.094.096.21.096.323 0 .343-.248.61-.59.61a.59.59 0 0 1-.496-.286L8.43 9.43a4.24 4.24 0 0 1-2.42.761 4.37 4.37 0 0 1-2.419-.742l-.685 1.066a.58.58 0 0 1-.476.286c-.515 0-.763-.534-.515-.933l.781-1.257A4.44 4.44 0 0 1 1.82 5.98c0-.61.133-1.22.381-1.771a1.68 1.68 0 0 1-.78-1.391c0-.895.742-1.619 1.6-1.619.628 0 1.218.362 1.485.895.495-.21.952-.285 1.505-.285.533 0 1.01.057 1.504.228A1.65 1.65 0 0 1 8.962 1.2M6.028 2.99A3.034 3.034 0 0 0 3 6.018a3.034 3.034 0 0 0 3.028 3.028 3.034 3.034 0 0 0 3.027-3.028A3.034 3.034 0 0 0 6.028 2.99M6.6 4.2v1.2h1.2v1.2H6.6v1.2H5.4V6.6H4.2V5.4h1.2V4.2z" clip-rule="evenodd"/></g><defs><clipPath id="a"><path fill="#fff" d="M0 0h12v12H0z"/></clipPath></defs></svg>
